utils/icons-generator/ic_input_user_comment.svg

<?xml version="1.0" encoding="UTF-8"?>
<svg xmlns="http://www.w3.org/2000/svg" xmlns:xlink="http://www.w3.org/1999/xlink" width="1000pt" height="1000pt" viewBox="0 0 1000 1000" version="1.1">
<g id="surface1">
<path style=" stroke:none;fill-rule:nonzero;fill:rgb(0%,0%,0%);fill-opacity:1;" d="M 812.5 93.75 L 187.5 93.75 C 135.722656 93.75 93.75 135.722656 93.75 187.5 L 93.75 950.3125 L 253.75 790.3125 C 259.738281 784.601562 267.664062 781.363281 275.9375 781.25 L 812.5 781.25 C 864.277344 781.25 906.25 739.277344 906.25 687.5 L 906.25 187.5 C 906.25 135.722656 864.277344 93.75 812.5 93.75 Z M 843.75 687.5 C 843.75 704.757812 829.757812 718.75 812.5 718.75 L 275.9375 718.75 C 251.082031 718.773438 227.253906 728.664062 209.6875 746.25 L 156.25 799.6875 L 156.25 187.5 C 156.25 170.242188 170.242188 156.25 187.5 156.25 L 812.5 156.25 C 829.757812 156.25 843.75 170.242188 843.75 187.5 Z M 843.75 687.5 "/>
<path style=" stroke:none;fill-rule:nonzero;fill:rgb(0%,0%,0%);fill-opacity:1;" d="M 312.5 343.75 L 687.5 343.75 L 687.5 406.25 L 312.5 406.25 Z M 312.5 343.75 "/>
<path style=" stroke:none;fill-rule:nonzero;fill:rgb(0%,0%,0%);fill-opacity:1;" d="M 312.5 468.75 L 531.25 468.75 L 531.25 531.25 L 312.5 531.25 Z M 312.5 468.75 "/>
</g>
</svg>

<?xml version="1.0" encoding="UTF-8" standalone="no"?>
<svg
   xmlns:dc="http://purl.org/dc/elements/1.1/"
   xmlns:cc="http://creativecommons.org/ns#"
   xmlns:rdf="http://www.w3.org/1999/02/22-rdf-syntax-ns#"
   xmlns:svg="http://www.w3.org/2000/svg"
   xmlns="http://www.w3.org/2000/svg"
   xmlns:sodipodi="http://sodipodi.sourceforge.net/DTD/sodipodi-0.dtd"
   xmlns:inkscape="http://www.inkscape.org/namespaces/inkscape"
   width="1000pt"
   height="1000pt"
   viewBox="0 0 1000 1000"
   version="1.1"
   id="svg678"
   sodipodi:docname="ic_input_user_comment.svg"
   inkscape:version="0.92.4 (5da689c313, 2019-01-14)">
  <metadata
     id="metadata684">
    <rdf:RDF>
      <cc:Work
         rdf:about="">
        <dc:format>image/svg+xml</dc:format>
        <dc:type
           rdf:resource="http://purl.org/dc/dcmitype/StillImage" />
      </cc:Work>
    </rdf:RDF>
  </metadata>
  <defs
     id="defs682" />
  <sodipodi:namedview
     pagecolor="#ffffff"
     bordercolor="#666666"
     borderopacity="1"
     objecttolerance="10"
     gridtolerance="10"
     guidetolerance="10"
     inkscape:pageopacity="0"
     inkscape:pageshadow="2"
     inkscape:window-width="2560"
     inkscape:window-height="1346"
     id="namedview680"
     showgrid="false"
     inkscape:zoom="0.177"
     inkscape:cx="666.66667"
     inkscape:cy="666.66667"
     inkscape:window-x="-11"
     inkscape:window-y="-11"
     inkscape:window-maximized="1"
     inkscape:current-layer="svg678" />
  <g
     id="surface1"
     transform="matrix(1.1645385,0,0,1.1645385,-82.269265,-107.9255)">
    <path
       style="fill:#000000;fill-opacity:1;fill-rule:nonzero;stroke:none"
       d="m 812.5,93.75 h -625 c -51.77734,0 -93.75,41.97266 -93.75,93.75 v 762.8125 l 160,-160 c 5.98828,-5.71094 13.91406,-8.94922 22.1875,-9.0625 H 812.5 c 51.77734,0 93.75,-41.97266 93.75,-93.75 v -500 c 0,-51.77734 -41.97266,-93.75 -93.75,-93.75 z m 31.25,593.75 c 0,17.25781 -13.99219,31.25 -31.25,31.25 H 275.9375 c -24.85547,0.0234 -48.68359,9.91406 -66.25,27.5 L 156.25,799.6875 V 187.5 c 0,-17.25781 13.99219,-31.25 31.25,-31.25 h 625 c 17.25781,0 31.25,13.99219 31.25,31.25 z m 0,0"
       id="path671"
       inkscape:connector-curvature="0" />
    <path
       style="fill:#000000;fill-opacity:1;fill-rule:nonzero;stroke:none"
       d="m 312.5,343.75 h 375 v 62.5 h -375 z m 0,0"
       id="path673"
       inkscape:connector-curvature="0" />
    <path
       style="fill:#000000;fill-opacity:1;fill-rule:nonzero;stroke:none"
       d="m 312.5,468.75 h 218.75 v 62.5 H 312.5 Z m 0,0"
       id="path675"
       inkscape:connector-curvature="0" />
  </g>
</svg>
